X: 8115
T: Contradiction, The
R: reel
M: 4/4
K: Amajor
cefe ceae|d2 cA BE~E2|cefe ceae|f2 ge abed|
cefe ceae|f/g/a ec BEGB|eAce fdfa|gbeb aged||
c2 cA BE~ED|CEAc dBed|c2BA GABc|defg aefd|
c2 cA BE~ED|CEAc dBed|cABA GABc|defg aAce||
aA ~A2 cABA|GBEB GBEB|aA ~A2 cABA|GBEB cA ~A2|
ae ~e2 cAcA|GBEB GBE2|agfe fedc|BEGB A2 ce||
|:a2 c'e a2 c'e|bed'e bed'e|c'ee'e c'ee'e|dcBA EAce|
a2 c'e a2 c'e|bed'e bed'e|c'ee'e c'ee'e|dcBA EAce:|

